ummisco.gama.ui.shared/svg/branding/ummisco.gama.feature.experiment.ui.svg

<svg xmlns="http://www.w3.org/2000/svg" xmlns:xl="http://www.w3.org/1999/xlink" width="48" height="48" version="1.1" viewBox="-592 -3145.185 48 48"><g id="ICONES" fill="none" fill-opacity="1" stroke="none" stroke-dasharray="none" stroke-opacity="1"><title>ICONES</title><g id="ICONES_Calque_1"><title>Calque 1</title><g id="Group_4257"><g id="Graphic_3807"><path fill="#fff" d="M -584.32 -3145.1854 L -551.68 -3145.1854 C -547.43845 -3145.1854 -544 -3141.747 -544 -3137.5054 L -544 -3104.8654 C -544 -3100.624 -547.43845 -3097.1854 -551.68 -3097.1854 L -584.32 -3097.1854 C -588.56155 -3097.1854 -592 -3100.624 -592 -3104.8654 L -592 -3137.5054 C -592 -3141.747 -588.56155 -3145.1854 -584.32 -3145.1854 Z"/></g><g id="Group_3835"><g id="Graphic_3834"><path fill="#efb54f" fill-opacity=".252" d="M -590.60404 -3122.734 L -587.57504 -3122.734 C -587.2233 -3127.2347 -585.3262 -3131.6373 -581.8837 -3135.0797 C -574.21526 -3142.7482 -561.78225 -3142.7482 -554.1138 -3135.0797 C -550.6713 -3131.6373 -548.7742 -3127.2347 -548.4225 -3122.734 L -545.3935 -3122.734 C -545.7505 -3128.0092 -547.9452 -3133.1835 -551.97765 -3137.216 C -560.8259 -3146.064 -575.17165 -3146.064 -584.01986 -3137.216 C -588.0523 -3133.1835 -590.24704 -3128.0092 -590.60404 -3122.734 Z"/><path stroke="#efb64f" stroke-linecap="round" stroke-linejoin="round" stroke-width="0" d="M -590.60404 -3122.734 L -587.57504 -3122.734 C -587.2233 -3127.2347 -585.3262 -3131.6373 -581.8837 -3135.0797 C -574.21526 -3142.7482 -561.78225 -3142.7482 -554.1138 -3135.0797 C -550.6713 -3131.6373 -548.7742 -3127.2347 -548.4225 -3122.734 L -545.3935 -3122.734 C -545.7505 -3128.0092 -547.9452 -3133.1835 -551.97765 -3137.216 C -560.8259 -3146.064 -575.17165 -3146.064 -584.01986 -3137.216 C -588.0523 -3133.1835 -590.24704 -3128.0092 -590.60404 -3122.734 Z"/></g><g id="Graphic_3833"><path fill="#d3673a" fill-opacity=".249" d="M -584.9256 -3122.6968 L -581.8903 -3122.6968 C -581.56134 -3125.7568 -580.22406 -3128.729 -577.87844 -3131.0745 C -572.42204 -3136.531 -563.5755 -3136.531 -558.1191 -3131.0745 C -555.77346 -3128.729 -554.4362 -3125.7568 -554.10724 -3122.6968 L -551.0719 -3122.6968 C -551.4102 -3126.5324 -553.04724 -3130.275 -555.9829 -3133.2106 C -562.6191 -3139.8468 -573.3784 -3139.8468 -580.0146 -3133.2106 C -582.9503 -3130.275 -584.5873 -3126.5324 -584.9256 -3122.6968 Z"/><path stroke="#d2673a" stroke-linecap="round" stroke-linejoin="round" stroke-width="0" d="M -584.9256 -3122.6968 L -581.8903 -3122.6968 C -581.56134 -3125.7568 -580.22406 -3128.729 -577.87844 -3131.0745 C -572.42204 -3136.531 -563.5755 -3136.531 -558.1191 -3131.0745 C -555.77346 -3128.729 -554.4362 -3125.7568 -554.10724 -3122.6968 L -551.0719 -3122.6968 C -551.4102 -3126.5324 -553.04724 -3130.275 -555.9829 -3133.2106 C -562.6191 -3139.8468 -573.3784 -3139.8468 -580.0146 -3133.2106 C -582.9503 -3130.275 -584.5873 -3126.5324 -584.9256 -3122.6968 Z"/></g><g id="Graphic_3832"><path fill="#3570a0" fill-opacity=".25" d="M -579.223 -3122.734 L -576.1634 -3122.734 C -575.8655 -3124.322 -575.1021 -3125.8403 -573.87316 -3127.0692 C -570.6288 -3130.3136 -565.3687 -3130.3136 -562.12435 -3127.0692 C -560.89544 -3125.8403 -560.132 -3124.322 -559.8341 -3122.734 L -556.7745 -3122.734 C -557.09733 -3125.101 -558.16856 -3127.3857 -559.9882 -3129.2053 C -564.4123 -3133.6295 -571.5852 -3133.6295 -576.0093 -3129.2053 C -577.82896 -3127.3857 -578.9002 -3125.101 -579.223 -3122.734 Z"/><path stroke="#3770a0" stroke-linecap="round" stroke-linejoin="round" stroke-width="0" d="M -579.223 -3122.734 L -576.1634 -3122.734 C -575.8655 -3124.322 -575.1021 -3125.8403 -573.87316 -3127.0692 C -570.6288 -3130.3136 -565.3687 -3130.3136 -562.12435 -3127.0692 C -560.89544 -3125.8403 -560.132 -3124.322 -559.8341 -3122.734 L -556.7745 -3122.734 C -557.09733 -3125.101 -558.16856 -3127.3857 -559.9882 -3129.2053 C -564.4123 -3133.6295 -571.5852 -3133.6295 -576.0093 -3129.2053 C -577.82896 -3127.3857 -578.9002 -3125.101 -579.223 -3122.734 Z"/></g><g id="Graphic_3831"><path fill="#d3673a" d="M -584.94556 -3122.734 L -581.9097 -3122.734 C -581.5758 -3125.7844 -580.2395 -3128.746 -577.90076 -3131.0848 C -575.1525 -3133.833 -571.5442 -3135.197 -567.94224 -3135.177 C -566.0555 -3135.1663 -564.1705 -3134.776 -562.4117 -3134.0057 L -561.23095 -3136.7874 C -563.36784 -3137.718 -565.657 -3138.188 -567.94776 -3138.198 C -572.32104 -3138.2167 -576.7002 -3136.5577 -580.0369 -3133.221 C -582.96576 -3130.292 -584.602 -3126.56 -584.94556 -3122.734 Z"/><path stroke="#d2673a" stroke-linecap="round" stroke-linejoin="round" stroke-width="0" d="M -584.94556 -3122.734 L -581.9097 -3122.734 C -581.5758 -3125.7844 -580.2395 -3128.746 -577.90076 -3131.0848 C -575.1525 -3133.833 -571.5442 -3135.197 -567.94224 -3135.177 C -566.0555 -3135.1663 -564.1705 -3134.776 -562.4117 -3134.0057 L -561.23095 -3136.7874 C -563.36784 -3137.718 -565.657 -3138.188 -567.94776 -3138.198 C -572.32104 -3138.2167 -576.7002 -3136.5577 -580.0369 -3133.221 C -582.96576 -3130.292 -584.602 -3126.56 -584.94556 -3122.734 Z"/></g><g id="Graphic_3830"><path fill="#3570a0" d="M -579.1785 -3122.6968 L -576.1229 -3122.6968 C -575.83565 -3124.3136 -575.06744 -3125.8616 -573.8182 -3127.111 C -572.31135 -3128.6177 -570.3696 -3129.4247 -568.397 -3129.5318 L -568.397 -3132.556 C -571.1434 -3132.4468 -573.8576 -3131.3438 -575.9544 -3129.247 C -577.7942 -3127.407 -578.8689 -3125.092 -579.1785 -3122.6968 Z"/><path stroke="#3770a0" stroke-linecap="round" stroke-linejoin="round" stroke-width="0" d="M -579.1785 -3122.6968 L -576.1229 -3122.6968 C -575.83565 -3124.3136 -575.06744 -3125.8616 -573.8182 -3127.111 C -572.31135 -3128.6177 -570.3696 -3129.4247 -568.397 -3129.5318 L -568.397 -3132.556 C -571.1434 -3132.4468 -573.8576 -3131.3438 -575.9544 -3129.247 C -577.7942 -3127.407 -578.8689 -3125.092 -579.1785 -3122.6968 Z"/></g><g id="Graphic_3829"><path fill="#efb54f" d="M -590.6065 -3122.6968 L -587.5779 -3122.6968 C -587.2337 -3127.2104 -585.33566 -3131.628 -581.8837 -3135.0797 C -574.21526 -3142.7482 -561.78225 -3142.7482 -554.1138 -3135.0797 C -553.2498 -3134.2158 -552.4832 -3133.2913 -551.8139 -3132.32 L -549.18996 -3133.835 C -549.9934 -3135.0277 -550.9226 -3136.161 -551.97765 -3137.216 C -560.8259 -3146.064 -575.17165 -3146.064 -584.01986 -3137.216 C -588.0618 -3133.174 -590.2573 -3127.985 -590.6065 -3122.6968 Z"/><path stroke="#efb64f" stroke-linecap="round" stroke-linejoin="round" stroke-width="0" d="M -590.6065 -3122.6968 L -587.5779 -3122.6968 C -587.2337 -3127.2104 -585.33566 -3131.628 -581.8837 -3135.0797 C -574.21526 -3142.7482 -561.78225 -3142.7482 -554.1138 -3135.0797 C -553.2498 -3134.2158 -552.4832 -3133.2913 -551.8139 -3132.32 L -549.18996 -3133.835 C -549.9934 -3135.0277 -550.9226 -3136.161 -551.97765 -3137.216 C -560.8259 -3146.064 -575.17165 -3146.064 -584.01986 -3137.216 C -588.0618 -3133.174 -590.2573 -3127.985 -590.6065 -3122.6968 Z"/></g></g><g id="Group_4077"><title/><g id="Graphic_4065"><path fill="#3770a1" d="M -582.8365 -3112.7074 L -582.8365 -3113.8594 L -584.5105 -3113.8594 L -584.5105 -3115.3624 L -583.0705 -3115.3624 L -583.0705 -3116.5144 L -584.5105 -3116.5144 L -584.5105 -3117.9634 L -582.8365 -3117.9634 L -582.8365 -3119.1154 L -585.7885 -3119.1154 L -585.7885 -3112.7074 Z"/></g><g id="Graphic_4066"><path fill="#3770a1" d="M -578.7145 -3112.7074 L -579.9115 -3115.1644 L -578.7685 -3117.5494 L -580.1095 -3117.5494 L -580.6135 -3116.3164 L -581.1175 -3117.5494 L -582.4495 -3117.5494 L -581.3335 -3115.1644 L -582.5125 -3112.7074 L -581.1715 -3112.7074 L -580.6135 -3113.9584 L -580.0555 -3112.7074 Z"/></g><g id="Graphic_4067"><path fill="#3770a1" d="M -578.2645 -3117.5494 L -578.2645 -3111.1414 L -577.0585 -3111.1414 L -577.0585 -3112.9954 C -576.9685 -3112.8964 -576.8695 -3112.8154 -576.7615 -3112.7524 C -576.6265 -3112.6804 -576.4555 -3112.6354 -576.3025 -3112.6354 C -575.9065 -3112.6354 -575.6365 -3112.7344 -575.4025 -3113.0314 C -575.0695 -3113.4454 -575.0695 -3114.1654 -575.0695 -3115.1284 C -575.0695 -3116.0914 -575.0695 -3116.8114 -575.4025 -3117.2254 C -575.6365 -3117.5224 -575.9065 -3117.6214 -576.3025 -3117.6214 C -576.4555 -3117.6214 -576.6265 -3117.5764 -576.7615 -3117.5044 C -576.8695 -3117.4414 -577.0585 -3117.2884 -577.1125 -3117.1984 L -577.1125 -3117.5494 Z M -577.0585 -3116.1004 C -577.0585 -3116.2534 -577.0225 -3116.3614 -576.9505 -3116.4334 C -576.8875 -3116.5054 -576.7975 -3116.5414 -576.6895 -3116.5414 C -576.5635 -3116.5414 -576.4555 -3116.4874 -576.3835 -3116.3704 C -576.3025 -3116.2444 -576.2755 -3115.9564 -576.2755 -3115.1284 C -576.2755 -3114.3004 -576.3025 -3114.0124 -576.3835 -3113.8864 C -576.4555 -3113.7694 -576.5635 -3113.7154 -576.6895 -3113.7154 C -576.7975 -3113.7154 -576.8875 -3113.7514 -576.9505 -3113.8234 C -577.0225 -3113.8954 -577.0585 -3114.0034 -577.0585 -3114.1564 Z"/></g><g id="Graphic_4068"><path fill="#3770a1" d="M -571.2895 -3114.7414 C -571.2895 -3115.8574 -571.3345 -3116.7484 -571.7755 -3117.2074 C -572.1175 -3117.5584 -572.4775 -3117.6214 -572.9005 -3117.6214 C -573.3055 -3117.6214 -573.6925 -3117.5584 -574.0345 -3117.2074 C -574.4755 -3116.7484 -574.5115 -3115.8574 -574.5115 -3115.1284 C -574.5115 -3114.3994 -574.4755 -3113.5084 -574.0345 -3113.0584 C -573.6925 -3112.7074 -573.3595 -3112.6354 -572.9005 -3112.6354 C -572.3965 -3112.6354 -572.0275 -3112.7524 -571.7575 -3113.0494 C -571.4425 -3113.3914 -571.3345 -3113.7964 -571.3165 -3114.2014 L -572.5225 -3114.2014 C -572.5225 -3114.1204 -572.5405 -3113.9764 -572.5855 -3113.8954 C -572.6485 -3113.7784 -572.7475 -3113.7154 -572.9005 -3113.7154 C -573.0535 -3113.7154 -573.1615 -3113.7964 -573.2155 -3113.9044 C -573.2875 -3114.0394 -573.3055 -3114.4174 -573.3055 -3114.7414 Z M -572.4955 -3115.6144 L -573.3055 -3115.6144 C -573.3055 -3116.0284 -573.2695 -3116.2624 -573.2155 -3116.3614 C -573.1525 -3116.4784 -573.0625 -3116.5414 -572.9005 -3116.5414 C -572.7385 -3116.5414 -572.6485 -3116.4784 -572.5855 -3116.3614 C -572.5315 -3116.2624 -572.4955 -3116.0284 -572.4955 -3115.6144 Z"/></g><g id="Graphic_4069"><path fill="#3770a1" d="M -568.2115 -3116.4334 L -568.2115 -3117.6214 C -568.4725 -3117.6214 -568.7155 -3117.5584 -568.9225 -3117.4594 C -569.1385 -3117.3514 -569.3185 -3117.1984 -569.4535 -3117.0274 L -569.4535 -3117.5494 L -570.6055 -3117.5494 L -570.6055 -3112.7074 L -569.3995 -3112.7074 L -569.3995 -3115.6594 C -569.3995 -3116.1454 -569.0575 -3116.4334 -568.6525 -3116.4334 Z"/></g><g id="Graphic_4070"><path fill="#3770a1" d="M -566.4295 -3112.7074 L -566.4295 -3117.3604 L -567.6355 -3117.3604 L -567.6355 -3112.7074 Z M -566.3935 -3117.8914 L -566.3935 -3119.1694 L -567.6715 -3119.1694 L -567.6715 -3117.8914 Z"/></g><g id="Graphic_4071"><path fill="#3770a1" d="M -560.4715 -3112.7074 L -560.4715 -3116.1184 C -560.4715 -3116.7214 -560.5525 -3116.9824 -560.7415 -3117.2164 C -560.9755 -3117.4954 -561.2365 -3117.6214 -561.7135 -3117.6214 C -561.8305 -3117.6214 -562.0555 -3117.5764 -562.1905 -3117.5044 C -562.3705 -3117.4144 -562.5415 -3117.2704 -562.6765 -3117.1264 C -562.8925 -3117.4324 -563.2345 -3117.6214 -563.6395 -3117.6214 C -563.7925 -3117.6214 -563.9635 -3117.5764 -564.0985 -3117.5044 C -564.2335 -3117.4324 -564.3505 -3117.3154 -564.4495 -3117.1984 L -564.4495 -3117.5494 L -565.6015 -3117.5494 L -565.6015 -3112.7074 L -564.3955 -3112.7074 L -564.3955 -3116.1004 C -564.3955 -3116.3974 -564.2335 -3116.5414 -564.0175 -3116.5414 C -563.8015 -3116.5414 -563.6395 -3116.3974 -563.6395 -3116.1004 L -563.6395 -3112.7074 L -562.4335 -3112.7074 L -562.4335 -3116.1004 C -562.4335 -3116.3974 -562.2715 -3116.5414 -562.0555 -3116.5414 C -561.8395 -3116.5414 -561.6775 -3116.3974 -561.6775 -3116.1004 L -561.6775 -3112.7074 Z"/></g><g id="Graphic_4072"><path fill="#3770a1" d="M -556.5745 -3114.7414 C -556.5745 -3115.8574 -556.6195 -3116.7484 -557.0605 -3117.2074 C -557.4025 -3117.5584 -557.7625 -3117.6214 -558.1855 -3117.6214 C -558.5905 -3117.6214 -558.9775 -3117.5584 -559.3195 -3117.2074 C -559.7605 -3116.7484 -559.7965 -3115.8574 -559.7965 -3115.1284 C -559.7965 -3114.3994 -559.7605 -3113.5084 -559.3195 -3113.0584 C -558.9775 -3112.7074 -558.6445 -3112.6354 -558.1855 -3112.6354 C -557.6815 -3112.6354 -557.3125 -3112.7524 -557.0425 -3113.0494 C -556.7275 -3113.3914 -556.6195 -3113.7964 -556.6015 -3114.2014 L -557.8075 -3114.2014 C -557.8075 -3114.1204 -557.8255 -3113.9764 -557.8705 -3113.8954 C -557.9335 -3113.7784 -558.0325 -3113.7154 -558.1855 -3113.7154 C -558.3385 -3113.7154 -558.4465 -3113.7964 -558.5005 -3113.9044 C -558.5725 -3114.0394 -558.5905 -3114.4174 -558.5905 -3114.7414 Z M -557.7805 -3115.6144 L -558.5905 -3115.6144 C -558.5905 -3116.0284 -558.5545 -3116.2624 -558.5005 -3116.3614 C -558.4375 -3116.4784 -558.3475 -3116.5414 -558.1855 -3116.5414 C -558.0235 -3116.5414 -557.9335 -3116.4784 -557.8705 -3116.3614 C -557.8165 -3116.2624 -557.7805 -3116.0284 -557.7805 -3115.6144 Z"/></g><g id="Graphic_4073"><path fill="#3770a1" d="M -552.7225 -3112.7074 L -552.7225 -3116.1184 C -552.7225 -3116.7214 -552.8035 -3116.9824 -552.9925 -3117.2164 C -553.2265 -3117.4954 -553.4875 -3117.6214 -553.9285 -3117.6214 C -554.0815 -3117.6214 -554.2525 -3117.5764 -554.3875 -3117.5044 C -554.5225 -3117.4324 -554.6395 -3117.3154 -554.7385 -3117.1984 L -554.7385 -3117.5494 L -555.8905 -3117.5494 L -555.8905 -3112.7074 L -554.6845 -3112.7074 L -554.6845 -3116.1004 C -554.6845 -3116.3974 -554.5225 -3116.5414 -554.3065 -3116.5414 C -554.0905 -3116.5414 -553.9285 -3116.3974 -553.9285 -3116.1004 L -553.9285 -3112.7074 Z"/></g><g id="Graphic_4074"><path fill="#3770a1" d="M -549.8965 -3112.7074 L -549.8965 -3113.7874 C -550.3015 -3113.7874 -550.4905 -3113.9674 -550.4905 -3114.3454 L -550.4905 -3116.4514 L -549.8965 -3116.4514 L -549.8965 -3117.3604 L -550.4905 -3117.3604 L -550.4905 -3118.6834 L -551.6965 -3118.6834 L -551.6965 -3117.3604 L -552.1465 -3117.3604 L -552.1465 -3116.4514 L -551.6965 -3116.4514 L -551.6965 -3114.2644 C -551.6965 -3113.6344 -551.4805 -3113.2474 -551.1385 -3113.0044 C -550.7875 -3112.7524 -550.3915 -3112.7074 -549.8965 -3112.7074 Z"/></g><g id="Graphic_4075"><path fill="#c92505" d="M -567.325 -3103.1654 L -567.325 -3107.8544 L -568.603 -3107.8544 L -568.603 -3103.1024 C -568.603 -3102.6884 -568.846 -3102.5264 -569.134 -3102.5264 C -569.422 -3102.5264 -569.665 -3102.6884 -569.665 -3103.1024 L -569.665 -3107.8544 L -570.943 -3107.8544 L -570.943 -3103.1654 C -570.943 -3102.6524 -570.772 -3102.2204 -570.466 -3101.9054 C -570.124 -3101.5544 -569.674 -3101.3744 -569.134 -3101.3744 C -568.594 -3101.3744 -568.144 -3101.5544 -567.802 -3101.9054 C -567.496 -3102.2204 -567.325 -3102.6524 -567.325 -3103.1654 Z"/></g><g id="Graphic_4076"><rect width="1.278" height="6.408" x="-566.38" y="-3107.854" fill="#c92505"/></g></g></g></g></g></svg>

<svg xmlns="http://www.w3.org/2000/svg" width="48" height="48" viewBox="-592 -3145.185 48 48"><g fill="none"><path fill="#fff" d="M-584.32-3145.185h32.64a7.68 7.68 0 0 1 7.68 7.68v32.64a7.68 7.68 0 0 1-7.68 7.68h-32.64a7.68 7.68 0 0 1-7.68-7.68v-32.64a7.68 7.68 0 0 1 7.68-7.68Z"/><path fill="#efb54f" fill-opacity=".252" d="M-590.604-3122.734h3.029a19.558 19.558 0 0 1 5.691-12.346c7.669-7.668 20.102-7.668 27.77 0a19.558 19.558 0 0 1 5.692 12.346h3.029a22.57 22.57 0 0 0-6.585-14.482c-8.848-8.848-23.194-8.848-32.042 0a22.57 22.57 0 0 0-6.584 14.482Z"/><path d="M-590.604-3122.734h3.029a19.558 19.558 0 0 1 5.691-12.346c7.669-7.668 20.102-7.668 27.77 0a19.558 19.558 0 0 1 5.692 12.346h3.029a22.57 22.57 0 0 0-6.585-14.482c-8.848-8.848-23.194-8.848-32.042 0a22.57 22.57 0 0 0-6.584 14.482Z"/><path fill="#d3673a" fill-opacity=".249" d="M-584.926-3122.697h3.036a13.913 13.913 0 0 1 4.012-8.378c5.456-5.456 14.303-5.456 19.759 0a13.913 13.913 0 0 1 4.012 8.378h3.035a16.924 16.924 0 0 0-4.91-10.514c-6.637-6.636-17.396-6.636-24.033 0a16.924 16.924 0 0 0-4.91 10.514Z"/><path d="M-584.926-3122.697h3.036a13.913 13.913 0 0 1 4.012-8.378c5.456-5.456 14.303-5.456 19.759 0a13.913 13.913 0 0 1 4.012 8.378h3.035a16.924 16.924 0 0 0-4.91-10.514c-6.637-6.636-17.396-6.636-24.033 0a16.924 16.924 0 0 0-4.91 10.514Z"/><path fill="#3570a0" fill-opacity=".25" d="M-579.223-3122.734h3.06a8.308 8.308 0 0 1 16.33 0h3.059a11.28 11.28 0 0 0-3.214-6.471c-4.424-4.425-11.597-4.425-16.021 0a11.279 11.279 0 0 0-3.214 6.471Z"/><path d="M-579.223-3122.734h3.06a8.308 8.308 0 0 1 16.33 0h3.059a11.28 11.28 0 0 0-3.214-6.471c-4.424-4.425-11.597-4.425-16.021 0a11.279 11.279 0 0 0-3.214 6.471Z"/><path fill="#d3673a" d="M-584.946-3122.734h3.036a13.914 13.914 0 0 1 4.01-8.35 13.93 13.93 0 0 1 9.958-4.093c1.886.01 3.772.401 5.53 1.171l1.181-2.781a17.012 17.012 0 0 0-6.717-1.411 16.94 16.94 0 0 0-12.089 4.977 16.925 16.925 0 0 0-4.909 10.487Z"/><path d="M-584.946-3122.734h3.036a13.914 13.914 0 0 1 4.01-8.35 13.93 13.93 0 0 1 9.958-4.093c1.886.01 3.772.401 5.53 1.171l1.181-2.781a17.012 17.012 0 0 0-6.717-1.411 16.94 16.94 0 0 0-12.089 4.977 16.925 16.925 0 0 0-4.909 10.487Z"/><path fill="#3570a0" d="M-579.178-3122.697h3.055a8.27 8.27 0 0 1 2.305-4.414 8.277 8.277 0 0 1 5.421-2.42v-3.025a11.288 11.288 0 0 0-7.557 3.309 11.28 11.28 0 0 0-3.225 6.55Z"/><path d="M-579.178-3122.697h3.055a8.27 8.27 0 0 1 2.305-4.414 8.277 8.277 0 0 1 5.421-2.42v-3.025a11.288 11.288 0 0 0-7.557 3.309 11.28 11.28 0 0 0-3.225 6.55Z"/><path fill="#efb54f" d="M-590.606-3122.697h3.028a19.559 19.559 0 0 1 5.694-12.383c7.669-7.668 20.102-7.668 27.77 0 .864.864 1.63 1.789 2.3 2.76l2.624-1.515a22.77 22.77 0 0 0-2.788-3.381c-8.848-8.848-23.194-8.848-32.042 0a22.57 22.57 0 0 0-6.587 14.52Z"/><path d="M-590.606-3122.697h3.028a19.559 19.559 0 0 1 5.694-12.383c7.669-7.668 20.102-7.668 27.77 0 .864.864 1.63 1.789 2.3 2.76l2.624-1.515a22.77 22.77 0 0 0-2.788-3.381c-8.848-8.848-23.194-8.848-32.042 0a22.57 22.57 0 0 0-6.587 14.52Z"/><path fill="#3770a1" d="M-582.837-3112.707v-1.152h-1.673v-1.503h1.44v-1.152h-1.44v-1.45h1.673v-1.151h-2.952v6.408ZM-578.715-3112.707l-1.197-2.457 1.144-2.385h-1.341l-.505 1.233-.503-1.233h-1.332l1.115 2.385-1.179 2.457h1.341l.558-1.251.558 1.25ZM-578.264-3117.55v6.409h1.206v-1.854c.09.099.188.18.297.243.135.072.305.117.458.117.396 0 .667-.1.9-.396.334-.414.334-1.134.334-2.097 0-.963 0-1.683-.334-2.097-.233-.297-.504-.396-.9-.396-.153 0-.323.045-.458.117-.109.063-.298.216-.351.306v-.351Zm1.206 1.45c0-.153.035-.261.107-.333a.333.333 0 0 1 .262-.108c.125 0 .233.054.305.17.082.127.109.415.109 1.243 0 .828-.028 1.116-.109 1.242a.343.343 0 0 1-.305.17.333.333 0 0 1-.262-.107c-.072-.072-.107-.18-.107-.333ZM-571.29-3114.741c0-1.116-.045-2.007-.486-2.466-.341-.351-.702-.414-1.125-.414-.405 0-.792.063-1.134.414-.44.459-.476 1.35-.476 2.079 0 .729.035 1.62.476 2.07.342.35.675.423 1.135.423.504 0 .872-.117 1.142-.414.316-.342.423-.747.442-1.152h-1.207a.746.746 0 0 1-.063.306c-.063.117-.161.18-.314.18a.34.34 0 0 1-.316-.19c-.072-.134-.09-.512-.09-.836Zm-1.206-.873h-.81c0-.414.037-.648.09-.747.063-.117.154-.18.316-.18.161 0 .251.063.314.18.054.099.09.333.09.747ZM-568.212-3116.433v-1.188c-.26 0-.504.063-.71.162a1.58 1.58 0 0 0-.531.432v-.522h-1.153v4.842h1.207v-2.952c0-.486.341-.774.746-.774ZM-566.43-3112.707v-4.653h-1.206v4.653Zm.036-5.184v-1.278h-1.278v1.278ZM-560.471-3112.707v-3.411c0-.603-.082-.864-.27-1.098-.235-.28-.495-.405-.972-.405-.118 0-.343.045-.478.117-.18.09-.35.234-.486.378a1.157 1.157 0 0 0-.962-.495c-.154 0-.324.045-.46.117a1.266 1.266 0 0 0-.35.306v-.351h-1.153v4.842h1.207v-3.393c0-.297.161-.441.377-.441s.379.144.379.44v3.394h1.206v-3.393c0-.297.162-.441.377-.441.216 0 .379.144.379.44v3.394ZM-556.574-3114.741c0-1.116-.046-2.007-.487-2.466-.341-.351-.702-.414-1.125-.414-.404 0-.791.063-1.133.414-.442.459-.478 1.35-.478 2.079 0 .729.037 1.62.478 2.07.341.35.674.423 1.133.423.505 0 .874-.117 1.144-.414.315-.342.423-.747.44-1.152h-1.206a.746.746 0 0 1-.063.306c-.063.117-.162.18-.315.18a.34.34 0 0 1-.314-.19c-.072-.134-.09-.512-.09-.836Zm-1.207-.873h-.81c0-.414.037-.648.09-.747.063-.117.154-.18.315-.18.163 0 .253.063.316.18.053.099.09.333.09.747ZM-552.722-3112.707v-3.411c0-.603-.082-.864-.27-1.098-.235-.28-.495-.405-.937-.405-.153 0-.324.045-.459.117a1.266 1.266 0 0 0-.35.306v-.351h-1.152v4.842h1.206v-3.393c0-.297.161-.441.377-.441s.379.144.379.44v3.394ZM-549.896-3112.707v-1.08c-.406 0-.595-.18-.595-.558v-2.106h.595v-.91h-.595v-1.322h-1.206v1.323h-.45v.909h.45v2.187c0 .63.216 1.017.558 1.26.351.252.748.297 1.243.297Z"/><path fill="#c92505" d="M-567.325-3103.165v-4.69h-1.278v4.753c0 .414-.243.576-.531.576-.288 0-.531-.162-.531-.576v-4.752h-1.278v4.689c0 .513.171.945.477 1.26.342.35.792.53 1.332.53s.99-.18 1.332-.53c.306-.315.477-.747.477-1.26ZM-566.38-3107.854h1.278v6.408h-1.278z"/></g></svg>
